X:0268
T:A Favourite Highland Quick Step. 73. Regt.
M:C
L:1/8
Q:1/2=72
I: :: ::
Z:Jack Campin * www.campin.me.uk * 2009
K:G
g|e/e/e eg      (e2      e)d/B/| BA   AG/A/     BAAB  |d>e (d/e/d/)B/ d2 Bg|BGG>A BGG:|
d|g>ab>g         a>e     g2    |TB(A  A)(G/A/) TB(AA)B|d>eg>a         e>gdg|B<GGA BGGd|
  g>a  (b/a/).g (gg/).e/ g2    | BA  TA(G/A/)   BAAB  |d>ega          egdg |BGG>A BGG:|

